archdroid-icon-theme/Archdroid-ArchBlue/status/scalable/bluetooth.svg

<svg fill="#1793D1" height="48" viewBox="0 0 48 48" width="48" xmlns="http://www.w3.org/2000/svg"><path d="m35.41 15.41-11.41-11.41h-2v15.17l-9.17-9.17-2.83 2.83 11.17 11.17-11.17 11.17 2.83 2.83 9.17-9.17v15.17h2l11.41-11.41-8.58-8.59zm-9.41-3.75 3.76 3.76-3.76 3.75zm3.76 20.93-3.76 3.75v-7.52z" fill="#1793D1"/></svg>

<svg fill="#1793D1" height="48" viewBox="0 0 48 48" width="48" xmlns="http://www.w3.org/2000/svg"><path d="M35.41 15.41L24 4h-2v15.17L12.83 10 10 12.83 21.17 24 10 35.17 12.83 38 22 28.83V44h2l11.41-11.41L26.83 24l8.58-8.59zM26 11.66l3.76 3.76L26 19.17v-7.51zm3.76 20.93L26 36.34v-7.52l3.76 3.77z"/></svg>
